images_sukapura_svg/cmd/lc_aligndown.svg

<svg viewBox="0 0 24 24" xmlns="http://www.w3.org/2000/svg" xmlns:xlink="http://www.w3.org/1999/xlink"><linearGradient id="a" gradientUnits="userSpaceOnUse" x1="5" x2="16" y1="5" y2="5"><stop offset="0" stop-color="#0040dd"/><stop offset="1" stop-color="#0a84ff"/></linearGradient><g transform="translate(0 -1)"><path d="m7.5 19.5v-10h-5v10z" fill="#fc0" stroke="#e4b500" stroke-linecap="round" stroke-linejoin="round" stroke-opacity=".998039"/><path d="m8.484375 1a.50085546.50085546 0 0 0 -.3378906.1464844l-3 3a.50085546.50085546 0 0 0 0 .7070312l3 3a.50085546.50085546 0 0 0 .8535156-.3535156v-1.5h6.5c.276999 0 .5-.223.5-.5v-2c0-.277-.223001-.5-.5-.5h-6.5v-1.5a.50085546.50085546 0 0 0 -.515625-.5z" fill="url(#a)" transform="matrix(0 -1 -1 0 25 25)"/><rect fill="#69696e" height="1" ry=".5" width="20" x="2" y="21"/><path d="m15.5 19.5v-16h-5v16z" fill="#fff" stroke="#98989d" stroke-linecap="round" stroke-linejoin="round"/></g></svg>

<?xml version="1.0" encoding="UTF-8" standalone="no"?>
<svg
   xmlns:dc="http://purl.org/dc/elements/1.1/"
   xmlns:cc="http://creativecommons.org/ns#"
   xmlns:rdf="http://www.w3.org/1999/02/22-rdf-syntax-ns#"
   xmlns:svg="http://www.w3.org/2000/svg"
   xmlns="http://www.w3.org/2000/svg"
   xmlns:xlink="http://www.w3.org/1999/xlink"
   xmlns:sodipodi="http://sodipodi.sourceforge.net/DTD/sodipodi-0.dtd"
   xmlns:inkscape="http://www.inkscape.org/namespaces/inkscape"
   viewBox="0 0 24 24"
   version="1.1"
   id="svg16"
   sodipodi:docname="lc_aligndown.svg"
   inkscape:export-filename="/home/rizmut/Dokumen/Rizmut/Github/libreoffice-style-sukapura/images_sukapura/cmd/lc_objectalignright.png"
   inkscape:export-xdpi="96"
   inkscape:export-ydpi="96"
   inkscape:version="0.92.3 (unknown)">
  <metadata
     id="metadata22">
    <rdf:RDF>
      <cc:Work
         rdf:about="">
        <dc:format>image/svg+xml</dc:format>
        <dc:type
           rdf:resource="http://purl.org/dc/dcmitype/StillImage" />
        <dc:title></dc:title>
      </cc:Work>
    </rdf:RDF>
  </metadata>
  <defs
     id="defs20">
    <linearGradient
       gradientTransform="translate(75,-7)"
       id="a-367"
       gradientUnits="userSpaceOnUse"
       x1="14"
       x2="13.79661"
       y1="22"
       y2="2.1355929">
      <stop
         offset="0"
         stop-color="#0040dd"
         id="stop2206" />
      <stop
         offset="1"
         stop-color="#0a84ff"
         id="stop2208" />
    </linearGradient>
    <linearGradient
       inkscape:collect="always"
       xlink:href="#a-367"
       id="linearGradient851"
       x1="2"
       y1="10.005054"
       x2="13"
       y2="10.005054"
       gradientUnits="userSpaceOnUse"
       gradientTransform="translate(3,-5.005054)" />
    <clipPath
       clipPathUnits="userSpaceOnUse"
       id="clipPath962">
      <path
         id="path964"
         d="m 4,11 h 8 v 3 H 4 Z"
         style="fill:#000000;fill-opacity:1"
         inkscape:connector-curvature="0" />
    </clipPath>
  </defs>
  <sodipodi:namedview
     pagecolor="#ffffff"
     bordercolor="#666666"
     borderopacity="1"
     objecttolerance="10"
     gridtolerance="10"
     guidetolerance="10"
     inkscape:pageopacity="0"
     inkscape:pageshadow="2"
     inkscape:window-width="1366"
     inkscape:window-height="706"
     id="namedview18"
     showgrid="true"
     inkscape:zoom="8"
     inkscape:cx="-10.106446"
     inkscape:cy="-5.6914846"
     inkscape:window-x="0"
     inkscape:window-y="0"
     inkscape:window-maximized="1"
     inkscape:current-layer="svg16">
    <inkscape:grid
       type="xygrid"
       id="grid829"
       spacingx="0.5"
       spacingy="0.5"
       empspacing="2" />
  </sodipodi:namedview>
  <g
     transform="matrix(0,-1,-1,0,26,25)"
     id="g14">
    <g
       id="g2449"
       transform="matrix(0,-1,-1,0,26,26)">
      <path
         style="fill:#ffcc00;fill-opacity:1;stroke:#e4b500;stroke-linecap:round;stroke-linejoin:round;stroke-opacity:0.99803922"
         id="path2"
         d="m 7.5,19.5 v -10 h -5 v 10 z"
         inkscape:connector-curvature="0" />
      <path
         id="path4"
         transform="matrix(0,-1,-1,0,25,25)"
         d="M 8.484375,1 A 0.50085546,0.50085546 0 0 0 8.1464844,1.1464844 l -3,3 a 0.50085546,0.50085546 0 0 0 0,0.7070312 l 3,3 A 0.50085546,0.50085546 0 0 0 9,7.5 V 6 h 6.5 C 15.776999,6 16,5.777 16,5.5 v -2 C 16,3.223 15.776999,3 15.5,3 H 9 V 1.5 A 0.50085546,0.50085546 0 0 0 8.484375,1 Z"
         style="fill:url(#linearGradient851);fill-opacity:1;stroke:none;stroke-linecap:round;stroke-linejoin:round"
         inkscape:connector-curvature="0" />
      <rect
         style="fill:#69696e;fill-opacity:1"
         id="rect10"
         y="21"
         x="2"
         width="20"
         ry="0.5"
         height="1" />
      <path
         style="fill:#ffffff;stroke:#98989d;stroke-linecap:round;stroke-linejoin:round;stroke-opacity:1"
         id="path12"
         d="m 15.5,19.5 v -16 h -5 v 16 z"
         inkscape:connector-curvature="0" />
    </g>
  </g>
</svg>
